pro/src/icons/full-back.svg

<svg width="48" height="48" viewBox="0 0 48 48" fill="none" xmlns="http://www.w3.org/2000/svg">
<path id="icon" fill-rule="evenodd" clip-rule="evenodd" d="M24 44C35.0457 44 44 35.0457 44 24C44 12.9543 35.0457 4 24 4C12.9543 4 4 12.9543 4 24C4 35.0457 12.9543 44 24 44ZM23.5422 15.4035C24.1869 16.0483 24.1869 17.0936 23.5422 17.7383L18.9164 22.3641L33.3491 22.3641C34.2609 22.3641 35 23.1032 35 24.015C35 24.9268 34.2609 25.6659 33.3491 25.6659L18.9464 25.6659L23.5422 30.2617C24.1869 30.9064 24.1869 31.9517 23.5422 32.5965C22.8975 33.2412 21.8522 33.2412 21.2075 32.5965L13.7784 25.1674C13.1336 24.5226 13.1336 23.4774 13.7784 22.8326L21.2075 15.4035C21.8522 14.7588 22.8975 14.7588 23.5422 15.4035Z" fill="currentColor"/>
</svg>

<svg xmlns="http://www.w3.org/2000/svg" width="48" height="48" fill="none"><path id="icon" fill="currentColor" fill-rule="evenodd" d="M24 44c11.046 0 20-8.954 20-20S35.046 4 24 4 4 12.954 4 24s8.954 20 20 20m-.458-28.596c.645.644.645 1.69 0 2.334l-4.626 4.626H33.35a1.65 1.65 0 1 1 0 3.302H18.946l4.596 4.596a1.651 1.651 0 0 1-2.335 2.334l-7.429-7.429a1.65 1.65 0 0 1 0-2.334l7.43-7.43a1.65 1.65 0 0 1 2.334 0" clip-rule="evenodd"/></svg>
